static/img/mobile/status-bar-android.svg

<svg fill="none" height="144" viewBox="0 0 960 144" width="960" xmlns="http://www.w3.org/2000/svg" xmlns:xlink="http://www.w3.org/1999/xlink"><clipPath id="a"><path d="m0 0h960v144h-960z"/></clipPath><clipPath id="b"><path d="m0 0h960v144h-960z"/></clipPath><clipPath id="c"><path d="m582 42h20v20h-20z"/></clipPath><clipPath id="d"><path d="m607 42h20v20h-20z"/></clipPath><clipPath id="e"><path d="m632 42h20v20h-20z"/></clipPath><g clip-path="url(#a)"><g clip-path="url(#b)"><rect fill="#f1f1f6" height="104" rx="8" width="960"/><path d="m313.874 46.314v10.686h-2.109v-8.2544l-2.535.8057v-1.6626l4.417-1.5747zm10.467 9.0381v1.6479h-7.295v-1.4062l3.449-3.6988c.347-.3857.621-.7251.821-1.018.2-.2979.344-.564.432-.7984.093-.2392.139-.4663.139-.6811 0-.3223-.054-.5982-.161-.8277-.108-.2344-.266-.415-.476-.542-.205-.1269-.459-.1904-.762-.1904-.322 0-.601.0781-.835.2344-.229.1562-.405.3735-.527.6518-.117.2784-.176.5933-.176.9449h-2.117c0-.6348.152-1.2159.454-1.7432.303-.5322.73-.9546 1.282-1.2671.552-.3174 1.206-.4761 1.963-.4761.747 0 1.377.1221 1.89.3662.517.2393.908.586 1.172 1.0401.268.4492.402.9863.402 1.6113 0 .3516-.056.6958-.168 1.0327-.112.3321-.274.6641-.483.9961-.206.3272-.455.6592-.748.9961s-.617.686-.974 1.0474l-1.853 2.0801zm1.186.6298c0-.3125.108-.5737.323-.7837.219-.2099.51-.3149.871-.3149.362 0 .65.105.865.3149.219.21.329.4712.329.7837s-.11.5738-.329.7837c-.215.21-.503.315-.865.315-.361 0-.652-.105-.871-.315-.215-.2099-.323-.4712-.323-.7837zm0-6.0424c0-.3125.108-.5738.323-.7837.219-.21.51-.315.871-.315.362 0 .65.105.865.315.219.2099.329.4712.329.7837s-.11.5737-.329.7836c-.215.21-.503.315-.865.315-.361 0-.652-.105-.871-.315-.215-.2099-.323-.4711-.323-.7836zm11.236 3.0761v1.6553h-7.683l-.103-1.2817 4.446-7.0533h1.677l-1.816 3.0396-2.212 3.6401zm-1.208-6.6797v10.6641h-2.11v-10.6641zm9.236 7.7417c0 .669-.157 1.2329-.469 1.6919-.313.4541-.742.7984-1.289 1.0327-.542.2295-1.157.3443-1.846.3443-.688 0-1.306-.1148-1.853-.3443-.547-.2343-.979-.5786-1.296-1.0327-.318-.459-.476-1.0229-.476-1.6919 0-.4492.09-.8545.271-1.2158.18-.3662.432-.6787.754-.9375.327-.2637.711-.4639 1.15-.6006.439-.1416.918-.2124 1.436-.2124.693 0 1.313.1221 1.86.3662.547.2442.976.5884 1.289 1.0328.312.4443.469.9668.469 1.5673zm-2.124-.1391c0-.3272-.064-.6079-.191-.8423-.122-.2393-.295-.4224-.52-.5493-.224-.127-.486-.1905-.783-.1905-.298 0-.56.0635-.784.1905-.225.1269-.401.31-.527.5493-.123.2344-.184.5151-.184.8423 0 .3222.061.6006.184.8349.126.2344.302.4151.527.542.229.1221.495.1831.798.1831s.564-.061.784-.1831c.225-.1269.395-.3076.513-.542.122-.2343.183-.5127.183-.8349zm1.897-4.7754c0 .542-.144 1.0229-.432 1.4429-.289.415-.689.7397-1.202.9741-.507.2344-1.088.3515-1.743.3515-.659 0-1.245-.1171-1.758-.3515-.512-.2344-.913-.5591-1.201-.9741-.288-.42-.432-.9009-.432-1.4429 0-.6445.144-1.1865.432-1.626.293-.4443.694-.7812 1.201-1.0107.513-.2295 1.094-.3443 1.744-.3443.659 0 1.242.1148 1.75.3443.513.2295.913.5664 1.201 1.0107.293.4395.44.9815.44 1.626zm-2.11.0952c0-.2881-.051-.5371-.154-.7471-.102-.2148-.249-.3808-.439-.498-.186-.1172-.415-.1758-.688-.1758-.264 0-.491.0562-.682.1685-.185.1123-.329.2758-.432.4907-.097.2099-.146.4638-.146.7617 0 .2881.049.542.146.7617.103.2149.249.3833.44.5054.19.1221.42.1831.688.1831.269 0 .496-.061.681-.1831.191-.1221.335-.2905.432-.5054.103-.2197.154-.4736.154-.7617z" fill="#171c1e"/><g clip-path="url(#c)"><path d="m592 45.3333c-3.908 0-7.442 1.5834-10 4.15l10 10.0167 10-10.0167c-2.558-2.5666-6.092-4.15-10-4.15z" fill="#171c1e"/></g><g clip-path="url(#d)"><path d="m608.666 60.3333h16.667v-16.6666z" fill="#171c1e"/></g><g clip-path="url(#e)"><path d="m646.167 46.1667v13.3333c0 .4583-.375.8333-.833.8333h-6.667c-.458 0-.833-.375-.833-.8333v-13.3333c0-.4584.375-.8334.833-.8334h1.667v-1.6666h3.333v1.6666h1.667c.458 0 .833.375.833.8334zm-1.666.8333h-5v3.3333h5z" fill="#171c1e"/></g><path d="m10.7422 138-1.42579-3.965h-5.45899l-1.39648 3.965h-2.46094l5.3418-14.336h2.53906l5.34184 14.336zm-2.04103-5.977-1.33789-3.886c-.09766-.261-.23437-.671-.41016-1.231-.16927-.56-.28645-.97-.35156-1.23-.17578.801-.43294 1.676-.77148 2.627l-1.28906 3.72zm15.91403 5.977h-2.3047v-6.641c0-.833-.1692-1.455-.5078-1.865-.332-.41-.8626-.615-1.5918-.615-.97 0-1.6797.286-2.1289.859s-.6738 1.533-.6738 2.881v5.381h-2.2949v-10.801h1.7969l.3222 1.416h.1172c.3255-.514.7878-.911 1.3867-1.191.599-.28 1.263-.42 1.9922-.42 2.5912 0 3.8867 1.318 3.8867 3.955zm7.086.195c-1.3477 0-2.3991-.488-3.1543-1.465-.7552-.976-1.1328-2.347-1.1328-4.111 0-1.771.3808-3.148 1.1425-4.131.7683-.989 1.8295-1.484 3.1836-1.484 1.4193 0 2.5.524 3.2422 1.572h.1172c-.1107-.775-.166-1.387-.166-1.836v-3.935h2.3047v15.195h-1.7969l-.4004-1.416h-.1074c-.7357 1.074-1.8132 1.611-3.2324 1.611zm.6152-1.855c.944 0 1.6309-.264 2.0606-.791.4296-.534.651-1.397.664-2.588v-.322c0-1.361-.2213-2.328-.664-2.901-.4428-.573-1.1361-.859-2.0801-.859-.8073 0-1.4291.329-1.8653.986-.4362.651-.6543 1.582-.6543 2.793 0 1.198.2116 2.113.6348 2.744.4232.625 1.058.938 1.9043.938zm13.9316-9.336c.4623 0 .8431.032 1.1426.098l-.2246 2.138c-.3255-.078-.664-.117-1.0156-.117-.918 0-1.6634.3-2.2363.898-.5664.599-.8496 1.377-.8496 2.334v5.645h-2.295v-10.801h1.7969l.3027 1.905h.1172c.3581-.645.8236-1.156 1.3965-1.534.5794-.377 1.2012-.566 1.8652-.566zm12.9844 5.576c0 1.764-.4525 3.141-1.3574 4.131s-2.1647 1.484-3.7793 1.484c-1.0091 0-1.901-.228-2.6758-.683-.7747-.456-1.3704-1.11-1.7871-1.963s-.625-1.843-.625-2.969c0-1.751.4492-3.118 1.3477-4.101.8984-.984 2.1647-1.475 3.7988-1.475 1.5625 0 2.7995.504 3.7109 1.514.9115 1.002 1.3672 2.356 1.3672 4.062zm-7.8613 0c0 2.494.9212 3.74 2.7637 3.74 1.8229 0 2.7343-1.246 2.7343-3.74 0-2.467-.9179-3.701-2.7539-3.701-.9635 0-1.6634.319-2.0996.957-.4297.638-.6445 1.553-.6445 2.744zm13.0527 5.42h-2.2949v-10.801h2.2949zm-2.4316-13.662c0-.41.1107-.726.332-.947.2279-.222.5501-.332.9668-.332.4037 0 .7162.11.9375.332.2279.221.3418.537.3418.947 0 .391-.1139.7-.3418.928-.2213.221-.5338.332-.9375.332-.4167 0-.7389-.111-.9668-.332-.2213-.228-.332-.537-.332-.928zm9.6152 13.857c-1.3476 0-2.3991-.488-3.1543-1.465-.7552-.976-1.1328-2.347-1.1328-4.111 0-1.771.3809-3.148 1.1426-4.131.7682-.989 1.8294-1.484 3.1836-1.484 1.4193 0 2.5.524 3.2422 1.572h.1172c-.1107-.775-.1661-1.387-.1661-1.836v-3.935h2.3047v15.195h-1.7968l-.4004-1.416h-.1075c-.7356 1.074-1.8131 1.611-3.2324 1.611zm.6153-1.855c.944 0 1.6308-.264 2.0605-.791.4297-.534.651-1.397.6641-2.588v-.322c0-1.361-.2214-2.328-.6641-2.901s-1.1361-.859-2.0801-.859c-.8073 0-1.429.329-1.8652.986-.4362.651-.6543 1.582-.6543 2.793 0 1.198.2116 2.113.6348 2.744.4231.625 1.0579.938 1.9043.938z" fill="#000"/></g></g></svg>

<svg width="960" height="144" viewBox="0 0 960 144" fill="none" xmlns="http://www.w3.org/2000/svg"><g clip-path="url(#clip0_367_68599)"><g clip-path="url(#clip1_367_68599)"><rect width="960" height="104" rx="8" fill="#F1F1F6"/><path d="M313.874 46.314V57H311.765V48.7456L309.23 49.5513V47.8887L313.647 46.314H313.874ZM324.341 55.3521V57H317.046V55.5938L320.495 51.895C320.842 51.5093 321.116 51.1699 321.316 50.877C321.516 50.5791 321.66 50.313 321.748 50.0786C321.841 49.8394 321.887 49.6123 321.887 49.3975C321.887 49.0752 321.833 48.7993 321.726 48.5698C321.618 48.3354 321.46 48.1548 321.25 48.0278C321.045 47.9009 320.791 47.8374 320.488 47.8374C320.166 47.8374 319.887 47.9155 319.653 48.0718C319.424 48.228 319.248 48.4453 319.126 48.7236C319.009 49.002 318.95 49.3169 318.95 49.6685H316.833C316.833 49.0337 316.985 48.4526 317.287 47.9253C317.59 47.3931 318.017 46.9707 318.569 46.6582C319.121 46.3408 319.775 46.1821 320.532 46.1821C321.279 46.1821 321.909 46.3042 322.422 46.5483C322.939 46.7876 323.33 47.1343 323.594 47.5884C323.862 48.0376 323.996 48.5747 323.996 49.1997C323.996 49.5513 323.94 49.8955 323.828 50.2324C323.716 50.5645 323.554 50.8965 323.345 51.2285C323.139 51.5557 322.89 51.8877 322.597 52.2246C322.304 52.5615 321.98 52.9106 321.623 53.272L319.77 55.3521H324.341ZM325.527 55.9819C325.527 55.6694 325.635 55.4082 325.85 55.1982C326.069 54.9883 326.36 54.8833 326.721 54.8833C327.083 54.8833 327.371 54.9883 327.586 55.1982C327.805 55.4082 327.915 55.6694 327.915 55.9819C327.915 56.2944 327.805 56.5557 327.586 56.7656C327.371 56.9756 327.083 57.0806 326.721 57.0806C326.36 57.0806 326.069 56.9756 325.85 56.7656C325.635 56.5557 325.527 56.2944 325.527 55.9819ZM325.527 49.9395C325.527 49.627 325.635 49.3657 325.85 49.1558C326.069 48.9458 326.36 48.8408 326.721 48.8408C327.083 48.8408 327.371 48.9458 327.586 49.1558C327.805 49.3657 327.915 49.627 327.915 49.9395C327.915 50.252 327.805 50.5132 327.586 50.7231C327.371 50.9331 327.083 51.0381 326.721 51.0381C326.36 51.0381 326.069 50.9331 325.85 50.7231C325.635 50.5132 325.527 50.252 325.527 49.9395ZM336.763 53.0156V54.6709H329.08L328.977 53.3892L333.423 46.3359H335.1L333.284 49.3755L331.072 53.0156H336.763ZM335.555 46.3359V57H333.445V46.3359H335.555ZM344.791 54.0776C344.791 54.7466 344.634 55.3105 344.322 55.7695C344.009 56.2236 343.58 56.5679 343.033 56.8022C342.491 57.0317 341.876 57.1465 341.187 57.1465C340.499 57.1465 339.881 57.0317 339.334 56.8022C338.787 56.5679 338.355 56.2236 338.038 55.7695C337.72 55.3105 337.562 54.7466 337.562 54.0776C337.562 53.6284 337.652 53.2231 337.833 52.8618C338.013 52.4956 338.265 52.1831 338.587 51.9243C338.914 51.6606 339.298 51.4604 339.737 51.3237C340.176 51.1821 340.655 51.1113 341.173 51.1113C341.866 51.1113 342.486 51.2334 343.033 51.4775C343.58 51.7217 344.009 52.0659 344.322 52.5103C344.634 52.9546 344.791 53.4771 344.791 54.0776ZM342.667 53.9385C342.667 53.6113 342.603 53.3306 342.476 53.0962C342.354 52.8569 342.181 52.6738 341.956 52.5469C341.732 52.4199 341.47 52.3564 341.173 52.3564C340.875 52.3564 340.613 52.4199 340.389 52.5469C340.164 52.6738 339.988 52.8569 339.862 53.0962C339.739 53.3306 339.678 53.6113 339.678 53.9385C339.678 54.2607 339.739 54.5391 339.862 54.7734C339.988 55.0078 340.164 55.1885 340.389 55.3154C340.618 55.4375 340.884 55.4985 341.187 55.4985C341.49 55.4985 341.751 55.4375 341.971 55.3154C342.196 55.1885 342.366 55.0078 342.484 54.7734C342.606 54.5391 342.667 54.2607 342.667 53.9385ZM344.564 49.1631C344.564 49.7051 344.42 50.186 344.132 50.606C343.843 51.021 343.443 51.3457 342.93 51.5801C342.423 51.8145 341.842 51.9316 341.187 51.9316C340.528 51.9316 339.942 51.8145 339.429 51.5801C338.917 51.3457 338.516 51.021 338.228 50.606C337.94 50.186 337.796 49.7051 337.796 49.1631C337.796 48.5186 337.94 47.9766 338.228 47.5371C338.521 47.0928 338.922 46.7559 339.429 46.5264C339.942 46.2969 340.523 46.1821 341.173 46.1821C341.832 46.1821 342.415 46.2969 342.923 46.5264C343.436 46.7559 343.836 47.0928 344.124 47.5371C344.417 47.9766 344.564 48.5186 344.564 49.1631ZM342.454 49.2583C342.454 48.9702 342.403 48.7212 342.3 48.5112C342.198 48.2964 342.051 48.1304 341.861 48.0132C341.675 47.896 341.446 47.8374 341.173 47.8374C340.909 47.8374 340.682 47.8936 340.491 48.0059C340.306 48.1182 340.162 48.2817 340.059 48.4966C339.962 48.7065 339.913 48.9604 339.913 49.2583C339.913 49.5464 339.962 49.8003 340.059 50.02C340.162 50.2349 340.308 50.4033 340.499 50.5254C340.689 50.6475 340.919 50.7085 341.187 50.7085C341.456 50.7085 341.683 50.6475 341.868 50.5254C342.059 50.4033 342.203 50.2349 342.3 50.02C342.403 49.8003 342.454 49.5464 342.454 49.2583Z" fill="#171C1E"/><g clip-path="url(#clip2_367_68599)"><path d="M592 45.3333C588.092 45.3333 584.558 46.9167 582 49.4833L592 59.5L602 49.4833C599.442 46.9167 595.908 45.3333 592 45.3333Z" fill="#171C1E"/></g><g clip-path="url(#clip3_367_68599)"><path d="M608.666 60.3333H625.333V43.6667L608.666 60.3333Z" fill="#171C1E"/></g><g clip-path="url(#clip4_367_68599)"><path d="M646.167 46.1667V59.5C646.167 59.9583 645.792 60.3333 645.334 60.3333H638.667C638.209 60.3333 637.834 59.9583 637.834 59.5V46.1667C637.834 45.7083 638.209 45.3333 638.667 45.3333H640.334V43.6667H643.667V45.3333H645.334C645.792 45.3333 646.167 45.7083 646.167 46.1667ZM644.501 47H639.501V50.3333H644.501V47Z" fill="#171C1E"/></g><path d="M10.7422 138L9.31641 134.035H3.85742L2.46094 138H0L5.3418 123.664H7.88086L13.2227 138H10.7422ZM8.70117 132.023L7.36328 128.137C7.26562 127.876 7.12891 127.466 6.95312 126.906C6.78385 126.346 6.66667 125.936 6.60156 125.676C6.42578 126.477 6.16862 127.352 5.83008 128.303L4.54102 132.023H8.70117ZM24.6152 138H22.3105V131.359C22.3105 130.526 22.1413 129.904 21.8027 129.494C21.4707 129.084 20.9401 128.879 20.2109 128.879C19.2409 128.879 18.5312 129.165 18.082 129.738C17.6328 130.311 17.4082 131.271 17.4082 132.619V138H15.1133V127.199H16.9102L17.2324 128.615H17.3496C17.6751 128.101 18.1374 127.704 18.7363 127.424C19.3353 127.144 19.9993 127.004 20.7285 127.004C23.3197 127.004 24.6152 128.322 24.6152 130.959V138ZM31.7012 138.195C30.3535 138.195 29.3021 137.707 28.5469 136.73C27.7917 135.754 27.4141 134.383 27.4141 132.619C27.4141 130.848 27.7949 129.471 28.5566 128.488C29.3249 127.499 30.3861 127.004 31.7402 127.004C33.1595 127.004 34.2402 127.528 34.9824 128.576H35.0996C34.9889 127.801 34.9336 127.189 34.9336 126.74V122.805H37.2383V138H35.4414L35.041 136.584H34.9336C34.1979 137.658 33.1204 138.195 31.7012 138.195ZM32.3164 136.34C33.2604 136.34 33.9473 136.076 34.377 135.549C34.8066 135.015 35.028 134.152 35.041 132.961V132.639C35.041 131.278 34.8197 130.311 34.377 129.738C33.9342 129.165 33.2409 128.879 32.2969 128.879C31.4896 128.879 30.8678 129.208 30.4316 129.865C29.9954 130.516 29.7773 131.447 29.7773 132.658C29.7773 133.856 29.9889 134.771 30.4121 135.402C30.8353 136.027 31.4701 136.34 32.3164 136.34ZM46.248 127.004C46.7103 127.004 47.0911 127.036 47.3906 127.102L47.166 129.24C46.8405 129.162 46.502 129.123 46.1504 129.123C45.2324 129.123 44.487 129.423 43.9141 130.021C43.3477 130.62 43.0645 131.398 43.0645 132.355V138H40.7695V127.199H42.5664L42.8691 129.104H42.9863C43.3444 128.459 43.8099 127.948 44.3828 127.57C44.9622 127.193 45.584 127.004 46.248 127.004ZM59.2324 132.58C59.2324 134.344 58.7799 135.721 57.875 136.711C56.9701 137.701 55.7103 138.195 54.0957 138.195C53.0866 138.195 52.1947 137.967 51.4199 137.512C50.6452 137.056 50.0495 136.402 49.6328 135.549C49.2161 134.696 49.0078 133.706 49.0078 132.58C49.0078 130.829 49.457 129.462 50.3555 128.479C51.2539 127.495 52.5202 127.004 54.1543 127.004C55.7168 127.004 56.9538 127.508 57.8652 128.518C58.7767 129.52 59.2324 130.874 59.2324 132.58ZM51.3711 132.58C51.3711 135.074 52.2923 136.32 54.1348 136.32C55.9577 136.32 56.8691 135.074 56.8691 132.58C56.8691 130.113 55.9512 128.879 54.1152 128.879C53.1517 128.879 52.4518 129.198 52.0156 129.836C51.5859 130.474 51.3711 131.389 51.3711 132.58ZM64.4238 138H62.1289V127.199H64.4238V138ZM61.9922 124.338C61.9922 123.928 62.1029 123.612 62.3242 123.391C62.5521 123.169 62.8743 123.059 63.291 123.059C63.6947 123.059 64.0072 123.169 64.2285 123.391C64.4564 123.612 64.5703 123.928 64.5703 124.338C64.5703 124.729 64.4564 125.038 64.2285 125.266C64.0072 125.487 63.6947 125.598 63.291 125.598C62.8743 125.598 62.5521 125.487 62.3242 125.266C62.1029 125.038 61.9922 124.729 61.9922 124.338ZM71.6074 138.195C70.2598 138.195 69.2083 137.707 68.4531 136.73C67.6979 135.754 67.3203 134.383 67.3203 132.619C67.3203 130.848 67.7012 129.471 68.4629 128.488C69.2311 127.499 70.2923 127.004 71.6465 127.004C73.0658 127.004 74.1465 127.528 74.8887 128.576H75.0059C74.8952 127.801 74.8398 127.189 74.8398 126.74V122.805H77.1445V138H75.3477L74.9473 136.584H74.8398C74.1042 137.658 73.0267 138.195 71.6074 138.195ZM72.2227 136.34C73.1667 136.34 73.8535 136.076 74.2832 135.549C74.7129 135.015 74.9342 134.152 74.9473 132.961V132.639C74.9473 131.278 74.7259 130.311 74.2832 129.738C73.8405 129.165 73.1471 128.879 72.2031 128.879C71.3958 128.879 70.7741 129.208 70.3379 129.865C69.9017 130.516 69.6836 131.447 69.6836 132.658C69.6836 133.856 69.8952 134.771 70.3184 135.402C70.7415 136.027 71.3763 136.34 72.2227 136.34Z" fill="#000"/></g></g><defs><clipPath id="clip0_367_68599"><rect width="960" height="144" fill="#fff"/></clipPath><clipPath id="clip1_367_68599"><rect width="960" height="144" fill="#fff"/></clipPath><clipPath id="clip2_367_68599"><rect width="20" height="20" fill="#fff" transform="translate(582 42)"/></clipPath><clipPath id="clip3_367_68599"><rect width="20" height="20" fill="#fff" transform="translate(607 42)"/></clipPath><clipPath id="clip4_367_68599"><rect width="20" height="20" fill="#fff" transform="translate(632 42)"/></clipPath></defs></svg>
